src/utils/icons/main/blogs/future-technology.svg

<svg width="80" height="80" viewBox="0 0 80 80" fill="none" xmlns="http://www.w3.org/2000/svg">
<path d="M54 54C64.6731 51.4308 72 46.1265 72 40C72 33.8735 64.6731 28.5692 54 26C55.098 30.2126 55.716 34.9676 55.716 40C55.716 45.0324 55.098 49.7874 54 54Z" fill="#404040"/>
<path d="M26 54C15.3269 51.4308 8 46.1265 8 40C8 33.8735 15.3269 28.5692 26 26C24.902 30.2126 24.284 34.9676 24.284 40C24.284 45.0324 24.902 49.7874 26 54Z" fill="#404040"/>
<path d="M26 54C28.5692 64.6731 33.8735 72 40 72C46.1265 72 51.4308 64.6731 54 54C49.7874 55.098 45.0324 55.716 40 55.716C34.9676 55.716 30.2126 55.098 26 54Z" fill="#FFD11A"/>
<path d="M26 26C28.5692 15.3269 33.8735 8 40 8C46.1265 8 51.4308 15.3269 54 26C49.7874 24.902 45.0324 24.284 40 24.284C34.9676 24.284 30.2126 24.902 26 26Z" fill="#FFD11A"/>
</svg>

<svg xmlns="http://www.w3.org/2000/svg" width="80" height="80" fill="none"><path fill="#404040" d="M54 54c10.673-2.57 18-7.873 18-14s-7.327-11.43-18-14c1.098 4.213 1.716 8.968 1.716 14S55.098 49.787 54 54M26 54C15.327 51.43 8 46.127 8 40s7.327-11.43 18-14c-1.098 4.213-1.716 8.968-1.716 14s.618 9.787 1.716 14"/><path fill="#FFD11A" d="M26 54c2.57 10.673 7.874 18 14 18s11.43-7.327 14-18c-4.213 1.098-8.968 1.716-14 1.716S30.213 55.098 26 54M26 26c2.57-10.673 7.874-18 14-18s11.43 7.327 14 18c-4.213-1.098-8.968-1.716-14-1.716s-9.787.618-14 1.716"/></svg>
